_site/assets/images/microservices.svg

<?xml version="1.0" encoding="UTF-8" standalone="no"?>
<!-- Created with Inkscape (http://www.inkscape.org/) -->
<svg
   xmlns:dc="http://purl.org/dc/elements/1.1/"
   xmlns:cc="http://web.resource.org/cc/"
   xmlns:rdf="http://www.w3.org/1999/02/22-rdf-syntax-ns#"
   xmlns:svg="http://www.w3.org/2000/svg"
   xmlns="http://www.w3.org/2000/svg"
   xmlns:sodipodi="http://inkscape.sourceforge.net/DTD/sodipodi-0.dtd"
   xmlns:inkscape="http://www.inkscape.org/namespaces/inkscape"
   width="400"
   height="400"
   id="svg8977"
   sodipodi:version="0.32"
   inkscape:version="0.43"
   version="1.0"
   sodipodi:docbase="C:\Files\Pics\Misc Etc"
   sodipodi:docname="Penrose_hexagon.svg">
  <defs
     id="defs8979" />
  <sodipodi:namedview
     id="base"
     pagecolor="#ffffff"
     bordercolor="#666666"
     borderopacity="1.0"
     inkscape:pageopacity="0.0"
     inkscape:pageshadow="2"
     inkscape:zoom="1.09"
     inkscape:cx="250"
     inkscape:cy="201.23697"
     inkscape:document-units="px"
     inkscape:current-layer="layer1"
     inkscape:window-width="1024"
     inkscape:window-height="712"
     inkscape:window-x="-4"
     inkscape:window-y="-4" />
  <metadata
     id="metadata8982">
    <rdf:RDF>
      <cc:Work
         rdf:about="">
        <dc:format>image/svg+xml</dc:format>
        <dc:type
           rdf:resource="http://purl.org/dc/dcmitype/StillImage" />
      </cc:Work>
    </rdf:RDF>
  </metadata>
  <g
     inkscape:label="Layer 1"
     inkscape:groupmode="layer"
     id="layer1">
    <path
       style="fill:#e3d9e6;fill-opacity:1;fill-rule:evenodd;stroke:#000000;stroke-width:1.00000012px;stroke-linecap:butt;stroke-linejoin:miter;stroke-opacity:1"
       d="M 85.59028,63.81205 L 25.5,185.74172 L 92.91838,314.68096 L 123.32991,315.78773 L 51.6979,174.12058 L 113.0706,42.96779 L 85.59028,63.81205 z "
       id="path9106" />
    <path
       style="fill:#ffffdd;fill-opacity:1;fill-rule:evenodd;stroke:#000000;stroke-width:1.00000012px;stroke-linecap:butt;stroke-linejoin:miter;stroke-opacity:1"
       d="M 51.86142,174.26614 L 114.16981,41.99071 L 278.31889,41.99071 L 312.94409,62.83498 L 135.23805,62.46604 L 64.70096,200.23859 L 51.86142,174.26614 z "
       id="path9108"
       sodipodi:nodetypes="ccccccc" />
    <path
       style="fill:#d0e5d9;fill-opacity:1;fill-rule:evenodd;stroke:#000000;stroke-width:1.00000012px;stroke-linecap:butt;stroke-linejoin:miter;stroke-opacity:1"
       d="M 123.87953,86.31646 L 135.60446,63.0742 L 313.67689,63.99651 L 374.49999,179.65445 L 373.41759,224.40966 L 302.31837,86.132 L 123.87953,86.31646 z "
       id="path9110"
       sodipodi:nodetypes="ccccccc" />
    <path
       style="fill:#d9e1fc;fill-opacity:1;fill-rule:evenodd;stroke:#000000;stroke-width:1.00000012px;stroke-linecap:butt;stroke-linejoin:miter;stroke-opacity:1"
       d="M 273.55564,86.86985 L 301.76875,87.05432 L 373.76718,224.47883 L 320.45537,334.26279 L 283.85146,356.98699 L 345.73726,228.01244 L 273.55564,86.86985 z "
       id="path9112"
       sodipodi:nodetypes="ccccccc" />
    <path
       style="fill:#fbd3d3;fill-opacity:1;fill-rule:evenodd;stroke:#000000;stroke-width:1.00000012px;stroke-linecap:butt;stroke-linejoin:miter;stroke-opacity:1"
       d="M 332.66515,202.66038 L 263.11312,338.47805 L 81.19344,338.47805 L 118.74987,358.4 L 283.44855,357.47768 L 345.65532,228.12052 L 332.66515,202.66038 z "
       id="path9114"
       sodipodi:nodetypes="ccccccc" />
    <path
       style="fill:#f7e2c6;fill-opacity:1;fill-rule:evenodd;stroke:#000000;stroke-width:1.00000012px;stroke-linecap:butt;stroke-linejoin:miter;stroke-opacity:1"
       d="M 274.65485,316.27771 L 262.3803,337.85981 L 81.92624,338.96659 L 26.41601,232.16284 C 26.41601,232.16284 25.88107,185.38215 25.51467,185.75108 C 25.14826,186.12001 93.28478,315.3554 93.28478,315.3554 L 274.65485,316.27771 z "
       id="path9116"
       sodipodi:nodetypes="ccccscc" />
  </g>
</svg>

<?xml version="1.0" encoding="utf-8"?>
<!-- Generator: Adobe Illustrator 21.0.0, SVG Export Plug-In . SVG Version: 6.00 Build 0)  -->
<svg version="1.1"
	 id="svg8977" inkscape:version="0.43" sodipodi:docbase="C:\Files\Pics\Misc Etc" sodipodi:docname="Penrose_hexagon.svg" sodipodi:version="0.32" xmlns:cc="http://web.resource.org/cc/" xmlns:dc="http://purl.org/dc/elements/1.1/" xmlns:inkscape="http://www.inkscape.org/namespaces/inkscape" xmlns:rdf="http://www.w3.org/1999/02/22-rdf-syntax-ns#" xmlns:sodipodi="http://inkscape.sourceforge.net/DTD/sodipodi-0.dtd" xmlns:svg="http://www.w3.org/2000/svg"
	 xmlns="http://www.w3.org/2000/svg" xmlns:xlink="http://www.w3.org/1999/xlink" x="0px" y="0px" viewBox="0 0 400 400"
	 style="enable-background:new 0 0 400 400;" xml:space="preserve">
<style type="text/css">
	.st0{fill:#A3A947;stroke:#000000;stroke-width:1;}
	.st1{fill:#EEBA2F;stroke:#000000;stroke-width:1;}
	.st2{fill:#009889;stroke:#000000;stroke-width:1;}
	.st3{fill:#3D77CE;stroke:#000000;stroke-width:1;}
	.st4{fill:#CF1936;stroke:#000000;stroke-width:1;}
	.st5{fill:#F95A31;stroke:#000000;stroke-width:1;}
</style>
<sodipodi:namedview  bordercolor="#666666" borderopacity="1.0" id="base" inkscape:current-layer="layer1" inkscape:cx="250" inkscape:cy="201.23697" inkscape:document-units="px" inkscape:pageopacity="0.0" inkscape:pageshadow="2" inkscape:window-height="712" inkscape:window-width="1024" inkscape:window-x="-4" inkscape:window-y="-4" inkscape:zoom="1.09" pagecolor="#ffffff">
	</sodipodi:namedview>
<g id="layer1" inkscape:groupmode="layer" inkscape:label="Layer 1">
	<path id="path9106" class="st0" d="M85.6,63.8L25.5,185.7l67.4,128.9l30.4,1.1L51.7,174.1L113.1,43L85.6,63.8z"/>
	<path id="path9108" sodipodi:nodetypes="ccccccc" class="st1" d="M51.9,174.3L114.2,42h164.1l34.6,20.8l-177.7-0.4L64.7,200.2
		L51.9,174.3z"/>
	<path id="path9110" sodipodi:nodetypes="ccccccc" class="st2" d="M123.9,86.3l11.7-23.2L313.7,64l60.8,115.7l-1.1,44.8L302.3,86.1
		L123.9,86.3z"/>
	<path id="path9112" sodipodi:nodetypes="ccccccc" class="st3" d="M273.6,86.9l28.2,0.2l72,137.4l-53.3,109.8L283.9,357l61.9-129
		L273.6,86.9z"/>
	<path id="path9114" sodipodi:nodetypes="ccccccc" class="st4" d="M332.7,202.7l-69.6,135.8H81.2l37.6,19.9l164.7-0.9l62.2-129.4
		L332.7,202.7z"/>
	<path id="path9116" sodipodi:nodetypes="ccccscc" class="st5" d="M274.7,316.3l-12.3,21.6L81.9,339L26.4,232.2
		c0,0-0.5-46.8-0.9-46.4c-0.4,0.4,67.8,129.6,67.8,129.6L274.7,316.3z"/>
</g>
</svg>
